X:1
T:Title
%%score { ( 1 3 4 ) | ( 2 5 ) }
L:1/8
Q:1/4=100
M:4/4
K:Bb
V:1 treble nm="Grand Piano"
V:3 treble 
V:4 treble 
V:2 bass 
V:5 bass 
V:1
 [DF]2 [DF]2 [EG]2 [DF]2 | B>A B>c [Fd]2 [DB]2 | [EG]2 [EB]2 [Ge]2 G2 | F>G F>E D4 | %4
w: Frank~M.~Davis * * *||||
 [DF]2 [DF]2 [EG]2 [DF]2 | B>A B>c [Fd]2 [DB]2 | [EG]2 [EB]2 [Ge]2 G2 | F>d c>A [DB]4 | %8
w: ||||
 z z/ B,/ B,>B, z z/ F/ B>c | [Fd]6 z2 | c6 z2 | B4 z4 | G>G G>B [Ge]2[K:bass] D,C, | %13
w: |||||
 [DF]>[DF] [DF]>[DB] [Fd]2 z2 | [Ec]6 z2 | [DB]6 z2 |] %16
w: |||
V:2
 [B,,B,]2 [B,,B,]2 [B,,B,]2 [B,,B,]2 | [F,D]>[F,C] [F,D]>[F,E] [B,,B,]2 [B,,B,]2 | %2
 [E,B,]2 [E,G,]2 [E,B,]2 [E,B,E]2 | [F,B,D]>[F,B,E] [F,B,D]>[F,C] [B,,F,B,]4 | %4
 [B,,B,]2 [B,,B,]2 [B,,B,]2 [B,,B,]2 | [F,D]>[F,C] [F,D]>[F,A,E] [B,,B,]2 [B,,B,]2 | %6
 [E,B,]2 [E,G,]2 [E,B,]2 [E,B,E]2 | [F,B,D]>[F,B,F] [F,E]>[F,C] [B,,F,]4 | %8
 [B,,B,]>B,, B,,>B,, z z/ D/ D>E | [B,,B,]>B,, B,,>B,, B,,2 F2 | %10
 E->[F,E-] [F,E-]>[F,E-] E>[K:treble]D F>E | [B,,F,]>B,, B,,>B,, [B,,B,]2 z2 | %12
 [E,B,E]>[E,B,E] [E,B,E]>[E,G,E] [E,B,]2 z2 | [B,,B,]>[B,,B,] [B,,B,]>[B,,F,] [B,,B,]2 z2 | %14
 [F,A,]>F, F,>F, z z/ E/ z z/ E/ | [B,,F,]6 z2 |] %16
V:3
 x8 | x8 | x8 | x8 | x8 | x8 | x8 | x8 | [DF]6 z2 | z z/ B,/ B,>B, B,2 d2 | %10
 z z/ A,/ A,>A, z z/ B/ d>c | D->[F,D-] [F,D-]>[F,D-] [DF]2 z2 | x6[K:bass] x2 | x8 | %14
 z z/ A,/ A,>A, z z/ c/ [EG]>A | x8 |] %16
V:4
 x8 | x8 | x8 | x8 | x8 | x8 | x8 | x8 | z4 B,2 z2 | x8 | z4 A,2 z2 | x8 | x6[K:bass] x2 | x8 | %14
 z4 A,2 z2 | x8 |] %16
V:5
 x8 | x8 | x8 | x8 | x8 | x8 | x8 | x8 | z4 B,,2 z2 | x8 | [F,A,]2 z2 F,2[K:treble] z2 | x8 | x8 | %13
 x8 | z4 F,2 F,2 | x8 |] %16

